images/themes/default/algorithms/mAlgorithmFuzzifySmall.svg

<svg height="24" viewBox="0 0 6.35 6.35" width="24" xmlns="http://www.w3.org/2000/svg"><path d="m1.846.679v4.857h4.554" fill="none" stroke="#000" stroke-width=".234"/><path d="m.633 4.803q-.171 0-.258.17-.085.167-.085.504 0 .337.085.506.087.167.258.167.172 0 .257-.167.087-.17.087-.506 0-.337-.087-.505-.085-.169-.257-.169zm0-.175q.275 0 .42.218.145.217.145.631 0 .414-.146.632-.144.217-.42.217-.274 0-.42-.217-.145-.218-.145-.632 0-.414.145-.63.146-.219.42-.219z"/><path d="m.165 1.493h.355v-1.224l-.386.077v-.198l.383-.077h.217v1.422h.355v.182h-.924z"/><g fill="none"><path d="m6.293 4.32c-1.04.016-1.405-.595-2.243-1.19-.781-.555-1.355-.656-2.053-.651" stroke="#179c00" stroke-width=".3"/><path d="m6.294 5.265c-1.034.016-1.801-1.202-2.261-2.105-.484-.95-.867-2.357-2.073-2.337" stroke="#f00" stroke-width=".298"/></g></svg>

<svg xmlns="http://www.w3.org/2000/svg" viewBox="0 0 6.35 6.35" height="24" width="24"><path d="M1.846.679v4.857H6.4" fill="none" stroke="#000" stroke-width=".234"/><path d="M.633 4.803q-.171 0-.258.17-.085.167-.085.504 0 .337.085.506.087.167.258.167.172 0 .257-.167.087-.17.087-.506 0-.337-.087-.505-.085-.169-.257-.169zm0-.175q.275 0 .42.218.145.217.145.631 0 .414-.146.632-.144.217-.42.217-.274 0-.42-.217-.145-.218-.145-.632 0-.414.145-.63.146-.219.42-.219z" aria-label="0" font-weight="400" font-size="40" font-family="sans-serif" letter-spacing="0" word-spacing="0"/><path d="M.165 1.493H.52V.269L.134.346V.148L.517.071h.217v1.422h.355v.182H.165z" aria-label="1" font-weight="400" font-size="40" font-family="sans-serif" letter-spacing="0" word-spacing="0"/><path d="M6.293 4.32c-1.04.016-1.405-.595-2.243-1.19-.781-.555-1.355-.656-2.053-.651" fill="none" stroke="#179c00" stroke-width=".3"/><path d="M6.294 5.265C5.26 5.281 4.493 4.063 4.033 3.16 3.549 2.21 3.166.803 1.96.823" fill="none" stroke="red" stroke-width=".298"/></svg>
